src/gui/emoticons/bunny.svg

<svg xmlns="http://www.w3.org/2000/svg" xmlns:xlink="http://www.w3.org/1999/xlink" width="16pt" height="16pt" version="1.1" viewBox="0 0 16 16"><defs><linearGradient id="linear0" x1="20.408" x2="46.972" y1="4.961" y2="61.042" gradientTransform="matrix(0.125,0,0,0.125,0,0)" gradientUnits="userSpaceOnUse"><stop offset=".294" style="stop-color:#fff;stop-opacity:1"/><stop offset=".411" style="stop-color:#f2f2f2;stop-opacity:1"/><stop offset=".628" style="stop-color:#cfcfcf;stop-opacity:1"/><stop offset=".918" style="stop-color:#989898;stop-opacity:1"/><stop offset="1" style="stop-color:#878787;stop-opacity:1"/></linearGradient><linearGradient id="linear1" x1="28.27" x2="41.341" y1="21.523" y2="49.118" gradientTransform="matrix(0.125,0,0,0.125,0,0)" gradientUnits="userSpaceOnUse"><stop offset=".163" style="stop-color:#ff87a8;stop-opacity:1"/><stop offset=".306" style="stop-color:#f87c9f;stop-opacity:1"/><stop offset=".998" style="stop-color:#d94874;stop-opacity:1"/></linearGradient><linearGradient id="linear2" x1="67.822" x2="94.386" y1="4.961" y2="61.041" gradientTransform="matrix(-0.125,0,0,0.125,21.92625,0)" gradientUnits="userSpaceOnUse"><stop offset=".294" style="stop-color:#fff;stop-opacity:1"/><stop offset=".411" style="stop-color:#f2f2f2;stop-opacity:1"/><stop offset=".628" style="stop-color:#cfcfcf;stop-opacity:1"/><stop offset=".918" style="stop-color:#989898;stop-opacity:1"/><stop offset="1" style="stop-color:#878787;stop-opacity:1"/></linearGradient><linearGradient id="linear3" x1="75.684" x2="88.755" y1="21.523" y2="49.118" gradientTransform="matrix(-0.125,0,0,0.125,21.92625,0)" gradientUnits="userSpaceOnUse"><stop offset=".163" style="stop-color:#ff87a8;stop-opacity:1"/><stop offset=".306" style="stop-color:#f87c9f;stop-opacity:1"/><stop offset=".998" style="stop-color:#d94874;stop-opacity:1"/></linearGradient><linearGradient id="linear4" x1="63.998" x2="63.998" y1="122.1" y2="47.503" gradientTransform="matrix(0.125,0,0,0.125,0,0)" gradientUnits="userSpaceOnUse"><stop offset="0" style="stop-color:#d4d4d4;stop-opacity:1"/><stop offset=".292" style="stop-color:#e3e3e3;stop-opacity:1"/><stop offset=".706" style="stop-color:#fff;stop-opacity:1"/></linearGradient><linearGradient id="linear5" x1="63.999" x2="63.999" y1="89.346" y2="99.888" gradientTransform="matrix(0.125,0,0,0.125,0,0)" gradientUnits="userSpaceOnUse"><stop offset=".163" style="stop-color:#ff87a8;stop-opacity:1"/><stop offset=".69" style="stop-color:#ff6492;stop-opacity:1"/><stop offset="1" style="stop-color:#ff5589;stop-opacity:1"/></linearGradient></defs><g id="surface1"><path style="stroke:none;fill-rule:nonzero;fill:url(#linear0)" d="M 6.628906 8.988281 C 6.058594 8.988281 4.003906 7.585938 2.886719 5.375 C 1.609375 2.851562 1.394531 0.894531 2.34375 0.386719 C 2.429688 0.339844 2.53125 0.316406 2.640625 0.316406 C 3.554688 0.316406 4.96875 1.808594 6.007812 3.863281 C 7.28125 6.378906 6.949219 8.804688 6.667969 8.984375 C 6.664062 8.984375 6.652344 8.988281 6.628906 8.988281 Z M 6.628906 8.988281"/><path style="stroke:none;fill-rule:nonzero;fill:#b0b0b0;fill-opacity:1" d="M 2.640625 0.507812 C 3.347656 0.507812 4.707031 1.714844 5.835938 3.949219 C 6.335938 4.9375 6.652344 6.078125 6.722656 7.167969 C 6.785156 8.082031 6.652344 8.617188 6.570312 8.792969 C 6.039062 8.695312 4.140625 7.425781 3.058594 5.289062 C 1.851562 2.902344 1.601562 1.003906 2.433594 0.558594 C 2.496094 0.523438 2.5625 0.507812 2.640625 0.507812 M 2.640625 0.125 C 2.503906 0.125 2.371094 0.15625 2.253906 0.21875 C 1.117188 0.824219 1.46875 2.996094 2.714844 5.460938 C 3.863281 7.730469 5.960938 9.179688 6.628906 9.179688 C 6.6875 9.179688 6.734375 9.171875 6.769531 9.148438 C 7.230469 8.855469 7.425781 6.242188 6.179688 3.777344 C 5.085938 1.617188 3.625 0.125 2.640625 0.125 Z M 2.640625 0.125"/><path style="stroke:none;fill-rule:nonzero;fill:url(#linear1)" d="M 5.285156 4.261719 C 5.875 5.425781 5.78125 6.664062 5.566406 6.800781 C 5.359375 6.933594 4.234375 6.226562 3.644531 5.058594 C 3.054688 3.890625 2.890625 2.863281 3.425781 2.578125 C 3.878906 2.335938 4.695312 3.09375 5.285156 4.261719 Z M 5.285156 4.261719"/><path style="stroke:none;fill-rule:nonzero;fill:url(#linear2)" d="M 9.371094 8.988281 C 9.34375 8.988281 9.332031 8.984375 9.332031 8.984375 C 9.050781 8.804688 8.71875 6.382812 9.992188 3.863281 C 11.03125 1.808594 12.445312 0.316406 13.359375 0.316406 C 13.46875 0.316406 13.566406 0.339844 13.65625 0.386719 C 14.601562 0.894531 14.390625 2.851562 13.113281 5.375 C 11.996094 7.585938 9.941406 8.988281 9.371094 8.988281 Z M 9.371094 8.988281"/><path style="stroke:none;fill-rule:nonzero;fill:#b0b0b0;fill-opacity:1" d="M 13.359375 0.507812 C 13.4375 0.507812 13.503906 0.523438 13.566406 0.558594 C 14.398438 1.003906 14.148438 2.90625 12.941406 5.289062 C 11.863281 7.425781 9.964844 8.691406 9.429688 8.792969 C 9.347656 8.617188 9.214844 8.082031 9.277344 7.167969 C 9.351562 6.078125 9.664062 4.9375 10.164062 3.949219 C 11.292969 1.714844 12.652344 0.507812 13.359375 0.507812 M 13.359375 0.125 C 12.375 0.125 10.914062 1.617188 9.820312 3.777344 C 8.574219 6.242188 8.773438 8.855469 9.234375 9.148438 C 9.265625 9.171875 9.316406 9.179688 9.371094 9.179688 C 10.042969 9.179688 12.140625 7.730469 13.285156 5.460938 C 14.53125 2.996094 14.882812 0.828125 13.746094 0.21875 C 13.628906 0.15625 13.5 0.125 13.359375 0.125 Z M 13.359375 0.125"/><path style="stroke:none;fill-rule:nonzero;fill:url(#linear3)" d="M 10.714844 4.261719 C 10.125 5.425781 10.21875 6.664062 10.433594 6.800781 C 10.640625 6.933594 11.765625 6.226562 12.355469 5.058594 C 12.945312 3.890625 13.109375 2.863281 12.574219 2.578125 C 12.121094 2.335938 11.304688 3.09375 10.714844 4.261719 Z M 10.714844 4.261719"/><path style="stroke:none;fill-rule:nonzero;fill:url(#linear4)" d="M 8 15.261719 C 3.558594 15.261719 2.628906 13.046875 2.628906 11.191406 C 2.628906 8 4.734375 5.9375 8 5.9375 C 11.265625 5.9375 13.371094 8 13.371094 11.191406 C 13.371094 14.734375 10.007812 15.261719 8 15.261719 Z M 8 15.261719"/><path style="stroke:none;fill-rule:nonzero;fill:#b0b0b0;fill-opacity:1" d="M 8 6.109375 C 9.632812 6.109375 10.984375 6.628906 11.902344 7.609375 C 12.738281 8.503906 13.199219 9.777344 13.199219 11.191406 C 13.199219 12.484375 12.730469 13.476562 11.800781 14.136719 C 10.921875 14.761719 9.605469 15.089844 8 15.089844 C 5.628906 15.089844 2.796875 14.414062 2.796875 11.191406 C 2.796875 9.777344 3.261719 8.507812 4.097656 7.609375 C 5.015625 6.628906 6.367188 6.109375 8 6.109375 M 8 5.765625 C 4.316406 5.765625 2.453125 8.253906 2.453125 11.191406 C 2.453125 14.128906 4.660156 15.433594 8 15.433594 C 11.277344 15.433594 13.542969 14.128906 13.542969 11.191406 C 13.542969 8.253906 11.683594 5.765625 8 5.765625 Z M 8 5.765625"/><path style="stroke:none;fill-rule:nonzero;fill:#404040;fill-opacity:1" d="M 11.320312 9.828125 C 11.320312 9.367188 10.972656 8.992188 10.546875 8.992188 C 10.117188 8.992188 9.769531 9.367188 9.769531 9.828125 C 9.769531 10.292969 10.117188 10.667969 10.546875 10.667969 C 10.972656 10.667969 11.320312 10.292969 11.320312 9.828125 Z M 11.320312 9.828125"/><path style="stroke:none;fill-rule:nonzero;fill:#404040;fill-opacity:1" d="M 6.230469 9.804688 C 6.230469 9.34375 5.882812 8.96875 5.453125 8.96875 C 5.027344 8.96875 4.679688 9.34375 4.679688 9.804688 C 4.679688 10.269531 5.027344 10.644531 5.453125 10.644531 C 5.882812 10.644531 6.230469 10.269531 6.230469 9.804688 Z M 6.230469 9.804688"/><path style="fill:none;stroke-width:3;stroke-linecap:round;stroke-linejoin:round;stroke:#b3b3b3;stroke-opacity:1;stroke-miterlimit:10" d="M 80.8125 101.4375 C 80.5 103.0625 79.71875 104.59375 78.46875 105.8125 C 75.125 109.0625 69.71875 108.90625 66.375 105.5 C 65.03125 104.125 64.21875 99.90625 63.96875 98.15625 C 63.75 99.90625 63.03125 104.09375 61.71875 105.4375 C 58.46875 108.78125 53.0625 108.78125 49.65625 105.4375 C 48.375 104.1875 47.53125 102.625 47.1875 101.03125" transform="matrix(0.125,0,0,0.125,0,0)"/><path style="stroke:none;fill-rule:nonzero;fill:url(#linear5)" d="M 7.21875 11.125 C 6.957031 11.125 6.78125 11.367188 6.875 11.609375 C 7.070312 12.125 7.417969 12.5 7.976562 12.5 C 7.984375 12.5 7.992188 12.492188 8 12.492188 C 8.007812 12.492188 8.015625 12.492188 8.023438 12.492188 C 8.582031 12.492188 8.929688 12.125 9.121094 11.609375 C 9.214844 11.367188 9.039062 11.125 8.78125 11.125 Z M 7.21875 11.125"/></g></svg>

<svg xmlns="http://www.w3.org/2000/svg" width="16pt" height="16pt" viewBox="0 0 16 16"><defs><linearGradient id="a" x1="20.408" x2="46.972" y1="4.961" y2="61.042" gradientTransform="scale(.125)" gradientUnits="userSpaceOnUse"><stop offset=".294" style="stop-color:#fff;stop-opacity:1"/><stop offset=".411" style="stop-color:#f2f2f2;stop-opacity:1"/><stop offset=".628" style="stop-color:#cfcfcf;stop-opacity:1"/><stop offset=".918" style="stop-color:#989898;stop-opacity:1"/><stop offset="1" style="stop-color:#878787;stop-opacity:1"/></linearGradient><linearGradient id="b" x1="28.27" x2="41.341" y1="21.523" y2="49.118" gradientTransform="scale(.125)" gradientUnits="userSpaceOnUse"><stop offset=".163" style="stop-color:#ff87a8;stop-opacity:1"/><stop offset=".306" style="stop-color:#f87c9f;stop-opacity:1"/><stop offset=".998" style="stop-color:#d94874;stop-opacity:1"/></linearGradient><linearGradient id="c" x1="67.822" x2="94.386" y1="4.961" y2="61.041" gradientTransform="matrix(-.125 0 0 .125 21.926 0)" gradientUnits="userSpaceOnUse"><stop offset=".294" style="stop-color:#fff;stop-opacity:1"/><stop offset=".411" style="stop-color:#f2f2f2;stop-opacity:1"/><stop offset=".628" style="stop-color:#cfcfcf;stop-opacity:1"/><stop offset=".918" style="stop-color:#989898;stop-opacity:1"/><stop offset="1" style="stop-color:#878787;stop-opacity:1"/></linearGradient><linearGradient id="d" x1="75.684" x2="88.755" y1="21.523" y2="49.118" gradientTransform="matrix(-.125 0 0 .125 21.926 0)" gradientUnits="userSpaceOnUse"><stop offset=".163" style="stop-color:#ff87a8;stop-opacity:1"/><stop offset=".306" style="stop-color:#f87c9f;stop-opacity:1"/><stop offset=".998" style="stop-color:#d94874;stop-opacity:1"/></linearGradient><linearGradient id="e" x1="63.998" x2="63.998" y1="122.1" y2="47.503" gradientTransform="scale(.125)" gradientUnits="userSpaceOnUse"><stop offset="0" style="stop-color:#d4d4d4;stop-opacity:1"/><stop offset=".292" style="stop-color:#e3e3e3;stop-opacity:1"/><stop offset=".706" style="stop-color:#fff;stop-opacity:1"/></linearGradient><linearGradient id="f" x1="63.999" x2="63.999" y1="89.346" y2="99.888" gradientTransform="scale(.125)" gradientUnits="userSpaceOnUse"><stop offset=".163" style="stop-color:#ff87a8;stop-opacity:1"/><stop offset=".69" style="stop-color:#ff6492;stop-opacity:1"/><stop offset="1" style="stop-color:#ff5589;stop-opacity:1"/></linearGradient></defs><path d="M6.629 8.988c-.57 0-2.625-1.402-3.742-3.613C1.609 2.852 1.395.895 2.344.387a.6.6 0 0 1 .297-.07c.914 0 2.328 1.492 3.367 3.546 1.273 2.516.941 4.942.66 5.121-.004 0-.016.004-.04.004m0 0" style="stroke:none;fill-rule:nonzero;fill:url(#a)"/><path d="M2.64.508c.708 0 2.067 1.207 3.196 3.441.5.989.816 2.13.887 3.219.062.914-.07 1.45-.153 1.625-.53-.098-2.43-1.367-3.511-3.504C1.852 2.902 1.602 1.004 2.434.56A.4.4 0 0 1 2.64.508m0-.383a.8.8 0 0 0-.387.094c-1.137.605-.785 2.777.46 5.242C3.865 7.73 5.962 9.18 6.63 9.18a.25.25 0 0 0 .14-.032c.461-.293.657-2.906-.59-5.37C5.087 1.617 3.626.124 2.642.124m0 0" style="stroke:none;fill-rule:nonzero;fill:#b0b0b0;fill-opacity:1"/><path d="M5.285 4.262c.59 1.164.496 2.402.281 2.539-.207.133-1.332-.574-1.921-1.742-.59-1.168-.754-2.196-.22-2.48.454-.243 1.27.515 1.86 1.683m0 0" style="stroke:none;fill-rule:nonzero;fill:url(#b)"/><path d="M9.371 8.988c-.027 0-.039-.004-.039-.004-.281-.18-.613-2.601.66-5.12C11.032 1.808 12.445.315 13.36.315q.163 0 .297.07c.946.509.735 2.466-.543 4.989-1.117 2.21-3.172 3.613-3.742 3.613m0 0" style="stroke:none;fill-rule:nonzero;fill:url(#c)"/><path d="M13.36.508q.115-.001.206.05c.832.446.582 2.348-.625 4.731-1.078 2.137-2.976 3.402-3.511 3.504-.082-.176-.215-.711-.153-1.625.075-1.09.387-2.23.887-3.219C11.293 1.715 12.652.508 13.36.508m0-.383c-.984 0-2.445 1.492-3.539 3.652-1.246 2.465-1.047 5.078-.586 5.371.032.024.082.032.137.032.672 0 2.77-1.45 3.914-3.72 1.246-2.464 1.598-4.632.461-5.241a.8.8 0 0 0-.387-.094m0 0" style="stroke:none;fill-rule:nonzero;fill:#b0b0b0;fill-opacity:1"/><path d="M10.715 4.262c-.59 1.164-.496 2.402-.281 2.539.207.133 1.332-.574 1.921-1.742.59-1.168.754-2.196.22-2.48-.454-.243-1.27.515-1.86 1.683m0 0" style="stroke:none;fill-rule:nonzero;fill:url(#d)"/><path d="M8 15.262c-4.441 0-5.371-2.215-5.371-4.07C2.629 8 4.734 5.937 8 5.937S13.371 8 13.371 11.19c0 3.543-3.363 4.07-5.371 4.07m0 0" style="stroke:none;fill-rule:nonzero;fill:url(#e)"/><path d="M8 6.11c1.633 0 2.984.519 3.902 1.5.836.894 1.297 2.167 1.297 3.581 0 1.293-.469 2.286-1.398 2.946-.88.625-2.196.953-3.801.953-2.371 0-5.203-.676-5.203-3.899 0-1.414.465-2.683 1.3-3.582.919-.98 2.27-1.5 3.903-1.5m0-.343c-3.684 0-5.547 2.488-5.547 5.425 0 2.938 2.207 4.243 5.547 4.243 3.277 0 5.543-1.305 5.543-4.243 0-2.937-1.86-5.425-5.543-5.425m0 0" style="stroke:none;fill-rule:nonzero;fill:#b0b0b0;fill-opacity:1"/><path d="M11.32 9.828c0-.46-.347-.836-.773-.836-.43 0-.777.375-.777.836 0 .465.347.84.777.84.426 0 .773-.375.773-.84M6.23 9.805c0-.461-.347-.836-.777-.836-.426 0-.773.375-.773.836 0 .465.347.84.773.84.43 0 .777-.375.777-.84m0 0" style="stroke:none;fill-rule:nonzero;fill:#404040;fill-opacity:1"/><path d="M80.813 101.438a8.25 8.25 0 0 1-2.344 4.374c-3.344 3.25-8.75 3.094-12.094-.312-1.344-1.375-2.156-5.594-2.406-7.344-.219 1.75-.938 5.938-2.25 7.281-3.25 3.344-8.657 3.344-12.063 0-1.281-1.25-2.125-2.812-2.468-4.406" style="fill:none;stroke-width:3;stroke-linecap:round;stroke-linejoin:round;stroke:#b3b3b3;stroke-opacity:1;stroke-miterlimit:10" transform="scale(.125)"/><path d="M7.219 11.125c-.262 0-.438.242-.344.484.195.516.543.891 1.102.891.007 0 .015-.008.023-.008h.023c.559 0 .907-.367 1.098-.883a.353.353 0 0 0-.34-.484Zm0 0" style="stroke:none;fill-rule:nonzero;fill:url(#f)"/></svg>
